X:1
T: The Maid in the Cherry Tree
C:
R:Reel
Q: 232
K:D
M:4/4
L:1/8
cd|eA AF G2 cd|eA ((3AAA) ge fd|eA AF A2 Bc|dB gB BA A2|
eA AF G2 cd|eA ((3AAA) ge fd|eA AF A2 Bc|dB gB BA A2|
|:ea ((3aga) ba ag|ea ag ((3efg) dg|ea ((3aga) ba af|ge dB BA A2|
ea ((3aga) ba ag|ea af g2 ga|bg af ge fd|ed gB BA A2:|
eA AF G2 cd|eA ((3AAA) ge fd|eA AF A2 Bc|dB gB BA A2|
eA AF G2 cd|eA ((3AAA) ge fd|eA AF A2 Bc|dB gB BA A2||
